X: 17
T: Piano Sonata no. 5 in C Minor, Adagio molto
C: Ludwig van Beethoven
%%abc-version 2.0
%%abcx-abcm2ps-target-version 5.9.1 (29 Sep 2008)
%%abc-creator hum2abc beta
%%abcx-conversion-date 2021/01/11 11:42:10
%%abc-edited-by Craig Stuart Sapp
%%abcx-initial-encoding-date 2008/10/31/
%%gracespace 0 6 6
%%humdrum-veritas 3897527694
%%humdrum-veritas-data 3315467415
%%linebreak <none>
%%barnumbers 0
L: 1/16
M: 2/4
Q: "Adagio molto" 1/4=52
%%staves {1 2}
V: 1 clef=treble
V: 2 clef=bass
K: Ab
[V:1] A4c3B & C4D4 | 
[V:2] [A,,4E,4A,4][G,,4E,4G,4] | 
[V:1] A6=A2 & C6z2 | 
[V:2] [A,,6E,6A,6]z2 | 
[V:1] B4d3c & E4E2A2 | 
[V:2] D2B,2A,2C2 & G,4A,4 | 
[V:1] B6=B2 & G6z2 | 
[V:2] [E,6E6]z2 | 
[V:1] c2>>A2 e7/c/ & E4[E4A4] | 
[V:2] A,4[C,4A,4C4] | 
[V:1] f2>>d2z4 & [F4A4][A4-d4a4] | 
[V:2] [D,4A,4D4][F,4A,4D4F4]- | 
[V:1] ag.f.e [B2d2][A2c2] & [A4d4]z4 | 
[V:2] [F,4A,4D4F4][G,2E2][A,2E2] | 
[V:1] e2>c2 B{/^A2B2}d/c/ e/d/(3c/d/B/ & E2E2E2 z2 | 
[V:2] C2>A,2 G,2 z2 & E,4E,2 z2 | 
[V:1] A4c3B & C4D4 | 
[V:2] A,,E,E,E, G,,E,E,E, & A,,4G,,4 | 
[V:1] [C4A4]z4 | 
[V:2] A,,E,C,A, E,CA,E | 
[V:1] B4d3c & z4A4 | 
[V:2] G,EEE A,EEE & G,4A,4 | 
[V:1] B4z4 & G4z4 | 
[V:2] E,E=DE DEF_D | 
[V:1] {/E} c2>>A2 {/E} e7/c/ | 
[V:2] z A,CE z C,E,A, | 
[V:1] {/F}f6[=Ae][Bd] | 
[V:2] z F,G,A, =A,B,CD & z2< D,2-D,4 | 
[V:1] c2e2d2B2 & A4G4 | 
[V:2] E=D_DC B,CDG, & E,4E,4 | 
[V:1] B4A2 z2 & D2C/D/E/D/ C2 z2 | 
[V:2] G,4A,2 z2 & A,,6z2 | 
[V:1] {/f}f'4{/e'2c'2=a2f2e2c2=A2} F2 z3/ [C/E/] | 
[V:2] [=A,4C4E4F4]z2 z3/ [=A,,/F,/] | 
[V:1] [C4E4][B,2D2] z2 | 
[V:2] [B,,6F,6]z2 | 
[V:1] {/e}e'4{/d'2b2g2e2d2B2G2} .E2 z3/ [B,/D/] | 
[V:2] [G,4B,4D4E4]z2 z3/ [G,,/E,/] | 
[V:1] [B,4D4][A,2C2] z2 | 
[V:2] [A,,6E,6]z2 | 
[V:1] z4z2 z3/ [E,/A,/E/] | 
[V:2] {/C,}_C4{/C2A,2E,2C,2A,,2E,,2} _C,,2 z3/ [C,,/_C,/] | 
[V:1] E4=D=EF=A & [F,6A,6]z2 | 
[V:2] [B,,,6B,,6]z2 | 
[V:1] B^c=d=e fgaf | 
[V:2] z8 | 
[V:1] =d4-d2e3/f/ | 
[V:2] [A,2B,2][A,2B,2][A,2B,2][A,2B,2] | 
[V:1] f2e4=e2 | 
[V:2] [G,2B,2][G,2B,2][G,2B,2][G,2B,2] | 
[V:1] f4-f2g3/a/ | 
[V:2] z6G,3/F,/ & [=D,2A,2B,2][D,2A,2B,2][D,2A,2B,2][D,2B,2] | 
[V:1] a2g zz4 | 
[V:2] [E,2F,2B,2][E,2G,2B,2][E,2G,2B,2][E,2G,2B,2] | 
[V:1] (3:2:18z// =D//E//F//E//D//A//G//F//=d//c//B// f//e//d//!beambr2!a//g//f//c'2<- c'2(7:4:7c'//b//a//g//f//e//=d// | 
[V:2] [A,2B,2][A,2B,2] [A,2B,2][A,2B,2] | 
[V:1] f>e =d/>e/f/>e/ E2 z2 | 
[V:2] z2 [G,2B,2][G,2B,2][G,2B,2] | 
[V:1] (3:2:18z// F//G//A//G//F//=d//c//B//f//e//d// a//g//f//!beambr2!=d'//c'//b//f'2<- f'2(3:2:6f'//e'//d'//c'//b//a// | 
[V:2] [=D,2A,2B,2][D,2F,2A,2B,2] [D,2F,2A,2B,2][D,2F,2A,2B,2] | 
[V:1] g3z/g/ a3z/a/ | 
[V:2] z2 [E,2G,2B,2] z2 [F,2A,2B,2=D2] | 
[V:1] b3z/b/ =b3z/b/ | 
[V:2] z2 [G,2B,2E2] z2 [G,2=B,2E2] | 
[V:1] c'3z/c'/ =d'3z/d'/ | 
[V:2] z2 [A,2C2E2] z2 [A,2_C2=D2F2] | 
[V:1] e'3z/e'/ f'e'.=d'.c' | 
[V:2] z2 [=A,2C2E2_G2]z4 | 
[V:1] b=ac'b _agfb & z2 [E2=G2] z2 [=D2A2] | 
[V:2] z2 B,2 z2 B,2 | 
[V:1] (3^fgG (3z gG (3gaA (3z aA | 
[V:2] (3z z E (3B,G,E, (3z z F (3=DB,F, | 
[V:1] z8 | 
[V:2] (3z z G (3EB,G, (3z z G (3E=B,G, | 
[V:1] (3=bc'c (3z c'c (3^c'=d'=d (3z d'd | 
[V:2] (3z z A (3ECA, (3z z A (3F=DB,[K:clef=treble] | 
[V:1] (3=d'e'e (3z e'e (3e'_ge' (3=ae'a | 
[V:2] (3z z =A (3GE_C-[C4E4G4A4][K:clef=bass] | 
[V:1] z4(3b=ac' (3b._a.g & b4-(3=G^FA (3.G.=FE | 
[V:2] (3z .B,,.E, (3.=G,.B,.Ez4 | 
[V:1] f2>>f2 {/e/f/} b7/b/ & e4=d4 | 
[V:2] [B,8A8] | 
[V:1] e2 z2 (3z =Ac (3.B._A.G & G2 z2z4 | 
[V:2] (3z .B,,,.E,, (3.G,,.B,,.E, (3.G,^F,A, (3.G,.=F,.E, | 
[V:1] F2>>F2 B7/B/ & E4=D4 | 
[V:2] [B,,8A,8] | 
[V:1] E2 z2z4 & E2 z2z4 | 
[V:2] [E,2G,2] z2z4 | 
[V:1] [G,2D2E2G2] z2z4 | 
[V:2] [E,,2B,,2D,2E,2] z2z4 | 
[V:1] A4c3B & C4D4 | 
[V:2] A,,2E,2G,,2E,2 | 
[V:1] A4-AGA=A & C4z4 | 
[V:2] A,,2E,2A,2C2 | 
[V:1] B4d3c & E4E2A2 | 
[V:2] D2B,2A,2C2 & G,4A,4 | 
[V:1] [G4B4-](3Bfe (3.d.c.=B | 
[V:2] E2D2B,2G,2 & [E,8E8] | 
[V:1] c2>>A2 e7/c/ | 
[V:2] z> A,E2 z> C,A,2 | 
[V:1] f2>>d2a4- | 
[V:2] z> D,A,>F, D>A,F3/D/ & z2 z> F,F,4- | 
[V:1] agfe eddc & A4E2E2 | 
[V:2] [F,2A,2][F,2A,2] [G,2B,2][A,2C2] | 
[V:1] e2>c2 Bd/c/ e/d/c//e//d//B// & E2E2E2 z2 | 
[V:2] C2>A,2 G,2 z2 & E,4E,2 z2 | 
[V:1] A4c3B & C4D4 | 
[V:2] A,,E,E,E, G,,E,E,E, & A,,4G,,4 | 
[V:1] A4z4 & C4z4 | 
[V:2] (3.A,,.E,.C, (3.A,.E,.C (3.A,.E.D (3.C.B,.A, | 
[V:1] B4d3c & E4[E4A4] | 
[V:2] G,4A,4 & G,E,E,E, A,E,E,E, | 
[V:1] [E4G4B4]z4 | 
[V:2] (3.E,,.G,,.B,, (3.E,.G,.B, (3.D.F.E (3D.C.B, | 
[V:1] {/E} c2>>A2 {/E} e7/c/ | 
[V:2] (3A, .E.C(3.A,.E,.C, (3z .C.A,(3.E,.C,.A,, | 
[V:1] {/F}[F4f4]-[F2f2]- (3[Ff][=Ae][Bd] | 
[V:2] (3z D,E,(3F,_G,=G, (3A,=A,B, (3=B,CD & (3:2:2z D,2D,6 | 
[V:1] c2e2d2B2 & A4G4 | 
[V:2] (3z E=D (3z _DC (3z B,C (3z DG, & E,4E,4 | 
[V:1] B4A2 z2 & D2- D/C//D//E//D//C//D// C2 z2 | 
[V:2] G,4A,2 z2 & A,,6z2 | 
[V:1] {/f}f'4{/e'2c'2=a2f2e2c2=A2} .F2 z3/ [C/E/] | 
[V:2] [A,4C4E4F4]z2 z3/ [=A,,/F,/] | 
[V:1] [C4E4][B,2D2] z2 | 
[V:2] [B,,6F,6]z2 | 
[V:1] {/e}e'4{/b2g2e2d2B2G2} .E2 z3/ [B,/D/] | 
[V:2] [G,4B,4D4E4]z2 z3/ [G,,/E,/] | 
[V:1] [B,4D4][A,2_C2] z2 | 
[V:2] [A,,6E,6]z2 | 
[V:1] z4z2 z3/ _F/ | 
[V:2] z6z3/ [_F,/A,/] & _C4{/C/A,/F,/C,/A,,/F,,/} _C,,2 z3/ [C,,/C,/] | 
[V:1] _F4E2 z3/ E/ | 
[V:2] [_G,6__B,6]z3/ [=F,/A,/] & [_C,,6_C,6]z3/ [C,,/C,/] | 
[V:1] E4=D2 z3/ D/ | 
[V:2] [F,6A,6]z3/ [F,/A,/] & [_C,,4_C,4][B,,,2B,,2] z3/ [B,,,/B,,/] | 
[V:1] =D4_D =ABc | 
[V:2] [F,4A,4][G,B,] z3 & [B,,,4B,,4][E,,2E,2] z2 | 
[V:1] d^fg=a bc'd'b | 
[V:2] z8 | 
[V:1] g4-g2a3/b/ | 
[V:2] [D2E2][D2E2][D2E2][D2E2] | 
[V:1] b2a4=a2 | 
[V:2] [C2E2][C2E2][C2E2][C2E2] | 
[V:1] b4-b2=c'3/d'/ | 
[V:2] z6C3/B,/ & [G,2D2E2][G,2D2E2][G,2D2E2][G,2E2] | 
[V:1] d'2c' zz4 | 
[V:2] [A,2=B,2E2][A,2C2E2][A,2C2E2][A,2C2E2] | 
[V:1] (3:2:18z// G//A//B//A//G//d//c//B//f//e//d// b//a//g//d'//c'//b//f'2<- f'2(7:4:7f'//e'//d'//c'//b//a//g// | 
[V:2] [D2E2][D2E2] [D2E2][D2E2] | 
[V:1] b>a g/>a/b/>a/ A2 z2 | 
[V:2] z2 [C2E2][C2E2][C2E2] | 
[V:1] (3:2:12z// B//c//d//c//B//f//e//d//b//a//g// d'2- d'3 (11:8:11c'/8d'/8e'/8d'/8c'/8b/8a/8g/8f/8e/8d/8 | 
[V:2] [G,2D2E2][G,2B,2D2E2] [G,2B,2D2E2][G,2B,2D2E2][K:clef=treble] | 
[V:1] c3z/c/ d3z/d/ | 
[V:2] z2 [A,2E2] z2 [B,2D2E2G2] | 
[V:1] e3z/e/ =e3z/e/ | 
[V:2] z2 [C2E2A2] z2 [C2=E2A2] | 
[V:1] f3z/f/ g3z/g/ | 
[V:2] z2 [D2F2A2] z2 [D2=E2G2B2] | 
[V:1] a3z/a/ ba.g.f | 
[V:2] z2 [=D2F2A2_c2]z4[K:clef=bass] | 
[V:1] e=dfe _dcBe | 
[V:2] z2 [E,2A,2C2] z2 [E,2G,2D2] | 
[V:1] (3=BcC (3z cC (3c.dD (3z dD | 
[V:2] (3z z A, (3E,C,A,, (3z z B, (3G,E,B,, | 
[V:1] (3=deE (3z eE (3e=e=E (3z eE | 
[V:2] (3z z C (3A,E,C, (3z z C (3A,=E,C, | 
[V:1] (3=efF (3z fF (3^fgG (3z gG | 
[V:2] (3z z D (3A,F,D, (3z z D (3B,G,E, | 
[V:1] (3gaA (3z aA (3_c'_cc' (3AaA | 
[V:2] (3z z ._C(3A,_F, =D[A,4C4D4] & z4F,4 | 
[V:1] e2 z2 (3z =d'f' (3.e'._d'.=c' | 
[V:2] (3z .E,A, (3.C.E.A[K:clef=treble] (3.=c=Bd (3.c._B.A | 
[V:1] b2>>b2 {/=a2b2} e'7/e'/ & a4g4 | 
[V:2] [E8d8][K:clef=bass] | 
[V:1] a2 z2z4 & c2 z2 (3z =df (3.e._d.c | 
[V:2] (3z .E,,A,, (3.C,.E,.A, (3.C=B,D (3C._B,.A, | 
[V:1] B2>>B2 {/=A2B2} e7/e/ & A4G4 | 
[V:2] [E,8D8] | 
[V:1] A4c3B & [CE][C2E2][CE] [DE][D2E2][DE] | 
[V:2] A,2E,2G,2E,2 | 
[V:1] A4-A3=A & [CE][C2E2][C2E2][C2E2][CE] | 
[V:2] A,2E,2C,2A,,2 | 
[V:1] B4[A3d3][Ac] & [DE]E2E- EE2E- | 
[V:2] G,,2E,,2A,,2C,2 | 
[V:1] [G8B8] & EE2E2E2E- | 
[V:2] z4E,4- & E,2F,2E,2D,2 | 
[V:1] e4d4 & EE2E2E2E- | 
[V:2] E,2A,4G,2- & C,4B,,4 | 
[V:1] c4B2d3/B/ & EE2=E- EF2F- | 
[V:2] G,2A,4B,D & A,,4D,4 | 
[V:1] A4=A2B2 & FE2E2E2E- | 
[V:2] z2C4G,2- & E,4E,4 | 
[V:1] =B2[C2c2][D2d2][=D2=d2] & EE2E2E2E- | 
[V:2] G,2A,2B,2=B,2 & [A,,4E,4][B,,2E,2][=B,,2E,2] | 
[V:1] e4d4 & E2E2 [D2E2][D2E2] | 
[V:2] CA,2A,2G,2G,- & [C,4E,4][B,,4E,4] | 
[V:1] c4Bcd3/B/ & [C2E2][C2=E2] F3F | 
[V:2] G,A,2A,- A,=A,B,D- & A,,4D,4 | 
[V:1] Ae2e2e2e & A2=A2B2G2 | 
[V:2] D2C2D2[B,2D2] & E,4E,4 | 
[V:1] A2 z2z4 & [CE]E2E2E2E- | 
[V:2] [A,,2A,2]C,2E,2A,2 | 
[V:1] [B4d4][B4d4] & EE2E2E2E- | 
[V:2] G,2F,2E,2G,2 | 
[V:1] [A2c2] z2z4 & EE2E2E2E- | 
[V:2] A,2E,2C,2A,,2 | 
[V:1] [D4B4][D4B4] & EE2E2E2E | 
[V:2] G,,2F,,2E,,2G,,2 | 
[V:1] [CA] [E,2E2][E,2E2][E,2E2][E,E]- | 
[V:2] z6[A,2C2] & A,,2E,,2C,,2[A,,,2A,,2] | 
[V:1] [E,E][E,2E2][E,2E2][E,2E2][E,E]- | 
[V:2] [B,4D4][B,4D4] & [G,,,2G,,2][F,,,2F,,2][G,,,2G,,2][E,,,2E,,2] | 
[V:1] [E,A,CE][E,2A,2C2E2][E,2A,2C2E2][E,2A,2C2E2][E,A,CE]- | 
[V:2] z2A,,6 & A,,,2A,,2E,,2C,,2 | 
[V:1] [E,A,CE][E,2A,2C2][E,2A,2C2][E,2A,2C2][E,A,C]- | 
[V:2] A,,2A,,6 & A,,,2 A,,2E,,2C,,2 | 
[V:1] [E,A,C][C,2E,2A,2][C,2E,2A,2][C,2E,2A,2][C,E,A,]- | 
[V:2] A,,2A,,6 & A,,,2 A,,2E,,2C,,2 | 
[V:1] [C,2E,2A,2] z2 [C,2E,2] z2[K:clef=bass] | 
[V:2] A,,,2 z2 A,,,2 z2 | 
[V:1] !fermata!C,8 |]  
[V:2] !fermata![A,,,8A,,8] |]  


